raw-svg/address-book.svg

<svg fill="none" height="24" viewBox="0 0 24 24" width="24" xmlns="http://www.w3.org/2000/svg"><path clip-rule="evenodd" d="m5.75 5c0-.107.10051-.25.29545-.25h9.40905c.195 0 .2955.143.2955.25v14c0 .107-.1005.25-.2955.25h-9.40905c-.19494 0-.29545-.143-.29545-.25zm.29545-1.75c-.95983 0-1.79545.75243-1.79545 1.75v14c0 .9976.83562 1.75 1.79545 1.75h9.40905c.9599 0 1.7955-.7524 1.7955-1.75v-14c0-.99757-.8356-1.75-1.7955-1.75zm13.70455 2.75c0-.41421-.3358-.75-.75-.75s-.75.33579-.75.75v2c0 .41421.3358.75.75.75s.75-.33579.75-.75zm-9 3.5c-.2761 0-.5.22386-.5.5 0 .2761.2239.5.5.5s.5-.2239.5-.5c0-.27614-.2239-.5-.5-.5zm-2 .5c0-1.10457.89543-2 2-2 1.1046 0 2 .89543 2 2 0 1.1046-.8954 2-2 2-1.10457 0-2-.8954-2-2zm11 1c0-.4142-.3358-.75-.75-.75s-.75.3358-.75.75v2c0 .4142.3358.75.75.75s.75-.3358.75-.75zm-.75 4.25c.4142 0 .75.3358.75.75v2c0 .4142-.3358.75-.75.75s-.75-.3358-.75-.75v-2c0-.4142.3358-.75.75-.75zm-10.5 0c0-.4333.06632-.6806.13645-.8208.0603-.1207.1379-.1934.261-.2521.14425-.0686.35969-.1205.68829-.1486.32737-.028.70546-.0285 1.16426-.0285s.8369.0005 1.1643.0285c.3286.0281.544.08.6883.1486.123.0587.2006.1314.261.2521.0701.1402.1364.3875.1364.8208 0 .4142.3358.75.75.75s.75-.3358.75-.75c0-.5667-.0837-1.0694-.2948-1.4917-.2209-.4418-.5558-.7441-.9578-.9354-.3807-.1814-.8028-.2545-1.2054-.2889-.3977-.034-.8371-.034-1.2717-.034h-.0203-.0203c-.4346 0-.874 0-1.27169.034-.40265.0344-.82471.1075-1.20546.2889-.4019.1913-.7368.4936-.95775.9354-.21112.4223-.2948.925-.2948 1.4917 0 .4142.33579.75.75.75s.75-.3358.75-.75z" fill="#000" fill-rule="evenodd"/></svg>

<svg width="24" height="24" viewBox="0 0 24 24" fill="none" xmlns="http://www.w3.org/2000/svg">
<path fill-rule="evenodd" clip-rule="evenodd" d="M5.75 5C5.75 4.893 5.85051 4.75 6.04545 4.75H15.4545C15.6495 4.75 15.75 4.893 15.75 5V19C15.75 19.107 15.6495 19.25 15.4545 19.25H6.04545C5.85051 19.25 5.75 19.107 5.75 19V5ZM6.04545 3.25C5.08562 3.25 4.25 4.00243 4.25 5V19C4.25 19.9976 5.08562 20.75 6.04545 20.75H15.4545C16.4144 20.75 17.25 19.9976 17.25 19V5C17.25 4.00243 16.4144 3.25 15.4545 3.25H6.04545ZM19.75 6C19.75 5.58579 19.4142 5.25 19 5.25C18.5858 5.25 18.25 5.58579 18.25 6V8C18.25 8.41421 18.5858 8.75 19 8.75C19.4142 8.75 19.75 8.41421 19.75 8V6ZM10.75 9.5C10.4739 9.5 10.25 9.72386 10.25 10C10.25 10.2761 10.4739 10.5 10.75 10.5C11.0261 10.5 11.25 10.2761 11.25 10C11.25 9.72386 11.0261 9.5 10.75 9.5ZM8.75 10C8.75 8.89543 9.64543 8 10.75 8C11.8546 8 12.75 8.89543 12.75 10C12.75 11.1046 11.8546 12 10.75 12C9.64543 12 8.75 11.1046 8.75 10ZM19.75 11C19.75 10.5858 19.4142 10.25 19 10.25C18.5858 10.25 18.25 10.5858 18.25 11V13C18.25 13.4142 18.5858 13.75 19 13.75C19.4142 13.75 19.75 13.4142 19.75 13V11ZM19 15.25C19.4142 15.25 19.75 15.5858 19.75 16V18C19.75 18.4142 19.4142 18.75 19 18.75C18.5858 18.75 18.25 18.4142 18.25 18V16C18.25 15.5858 18.5858 15.25 19 15.25ZM8.5 15.25C8.5 14.8167 8.56632 14.5694 8.63645 14.4292C8.69675 14.3085 8.77435 14.2358 8.89745 14.1771C9.0417 14.1085 9.25714 14.0566 9.58574 14.0285C9.91311 14.0005 10.2912 14 10.75 14C11.2088 14 11.5869 14.0005 11.9143 14.0285C12.2429 14.0566 12.4583 14.1085 12.6026 14.1771C12.7256 14.2358 12.8032 14.3085 12.8636 14.4292C12.9337 14.5694 13 14.8167 13 15.25C13 15.6642 13.3358 16 13.75 16C14.1642 16 14.5 15.6642 14.5 15.25C14.5 14.6833 14.4163 14.1806 14.2052 13.7583C13.9843 13.3165 13.6494 13.0142 13.2474 12.8229C12.8667 12.6415 12.4446 12.5684 12.042 12.534C11.6443 12.5 11.2049 12.5 10.7703 12.5H10.75H10.7297C10.2951 12.5 9.8557 12.5 9.45801 12.534C9.05536 12.5684 8.6333 12.6415 8.25255 12.8229C7.85065 13.0142 7.51575 13.3165 7.2948 13.7583C7.08368 14.1806 7 14.6833 7 15.25C7 15.6642 7.33579 16 7.75 16C8.16421 16 8.5 15.6642 8.5 15.25Z" fill="black"/>
</svg>
